!!!COM: Palestrina, Giovanni Perluigi da
!!!OPR: Missa In semidupl. maj. (I)
!!!OMD: Gloria
!!!OTL: Qui tollis
**kern	**kern	**kern	**kern	**kern
*Ibass	*Itenor	*Itenor	*Icalto	*Icant
!Bassus	!Tenor 2	!Tenor 1	!Altus	!Cantus
*clefF4	*clefGv2	*clefGv2	*clefG2	*clefG2
*k[b-]	*k[b-]	*k[b-]	*k[b-]	*k[b-]
*F:ion	*F:ion	*F:ion	*F:ion	*F:ion
*M4/2	*M4/2	*M4/2	*M4/2	*M4/2
=79	=79	=79	=79	=79
0r	1F	0r	0r	0r
.	1E	.	.	.
=80	=80	=80	=80	=80
0r	1F	1c	1r	0r
.	1D	1B	1f	.
=81	=81	=81	=81	=81
0r	1C	1c	1e	1r
.	1F	1A	1f	1cc
=82	=82	=82	=82	=82
0r	1G	1G	1d	1b
.	1A	2r	1c	1cc
.	.	2c	.	.
=83	=83	=83	=83	=83
0r	1F	2d	1f	1a
.	.	1c	.	.
.	1G	.	2e	1g
.	.	2B-	2d	.
=84	=84	=84	=84	=84
0r	1c	1A	2e	2a
.	.	.	2f	1cc
.	1d	1G	2.g	.
.	.	.	.	2b-
.	.	.	4f	.
=85	=85	=85	=85	=85
1C	1c	2r	4e	2a
.	.	.	4d	.
.	.	2G	2e	2.g
1BB	2r	2G	1d	.
.	.	.	.	4f
.	2G	2G	.	2d
=86	=86	=86	=86	=86
1C	2G	1E	2r	1e
.	2G	.	2c	.
1AA	2A	2F	2c	1r
.	[2c	2E	2c	.
=87	=87	=87	=87	=87
1GG	2c]	1G	1.d	2r
.	2B-	.	.	2g
1BB-	1d	1D	.	2f
.	.	.	[2f	2f
=88	=88	=88	=88	=88
1C	1c	2r	2f]	2a
.	.	2G	2e	1g
1D	1r	2B-	1d	.
.	.	2A	.	2f
=89	=89	=89	=89	=89
1C	2r	1c	1G	4e
.	.	.	.	4f
.	2c	.	.	4g
.	.	.	.	4e
1D	2A	2.F	1r	4f
.	.	.	.	4g
.	[2d	.	.	[2a
.	.	4G	.	.
=90	=90	=90	=90	=90
1F	2d]	1A	0r	4a]
.	.	.	.	4g
.	1c	.	.	1f
1G	.	1B-	.	.
.	[2B-	.	.	2e
=91	=91	=91	=91	=91
[0F	2B-]	1c	2r	1f
.	4A	.	1c	.
.	4G	.	.	.
.	[1A	1r	.	[1cc
.	.	.	2B-	.
=92	=92	=92	=92	=92
1F]	1A]	1.c	2A	2cc]
.	.	.	2G	2b-
1r	[1c	.	[1F	2a
.	.	2B-	.	2g
=93	=93	=93	=93	=93
1.F	2c]	2A	1F]	1f
.	2B-	2G	.	.
.	2A	2F	[1f	1c
2E	2G	2G	.	.
=94	=94	=94	=94	=94
2D	1F	2.A	2f]	2d
2C	.	.	2e	2e
.	.	4G	.	.
[1BB-	2r	2B-	2d	1f
.	[2F	2c	2c	.
=95	=95	=95	=95	=95
1BB-]	2F]	1.d	2B-	1r
.	2G	.	2B-	.
1r	2.B-	.	2d	1f
.	.	2c	[2f	.
.	4A	.	.	.
=96	=96	=96	=96	=96
0r	1G	1B-	2f]	2g
.	.	.	2e	1b-
.	2.F	1c	2.f	.
.	.	.	.	2a
.	4G	.	4e	.
=97	=97	=97	=97	=97
0r	2A	0r	2c	2cc
.	2B-	.	2d	4b-
.	.	.	.	4a
.	[1c	.	2e	2g
.	.	.	[2f	2a
=98	=98	=98	=98	=98
1C	1c]	1r	2f]	1g
.	.	.	2e	.
2D	1A	1F	2.f	2f
[2F	.	.	.	[2a
.	.	.	8e	.
.	.	.	8d	.
=99	=99	=99	=99	=99
2F]	0r	2A	1c	2a]
2E	.	2c	.	2g
2G	.	2B-	1r	2b-
4F	.	[2d	.	4a
4E	.	.	.	4g
=100	=100	=100	=100	=100
2D	1r	2d]	2r	2f
2E	.	1c	2c	2g
1D	1F	.	2d	2f
.	.	2B	2f	2d
=101	=101	=101	=101	=101
2C	2G	2c	2e	2e
4BB-	1B-	2.F	1d	2f
4C	.	.	.	.
4D	.	.	.	[1f
4E	.	4G	.	.
[2F	2A	[2A	4c	.
.	.	.	4B-	.
=102	=102	=102	=102	=102
2F]	2c	2A]	2A	1f]
2BB-	4B-	4G	2d	.
.	4A	4F	.	.
[1C	2G	2E	2e	[1cc
.	2A	2C	[2f	.
=103	=103	=103	=103	=103
0C]	0G	0c	2f]	0cc]
.	.	.	4e	.
.	.	.	4d	.
.	.	.	1e	.
=104	=104	=104	=104	=104
[0FF	[0F	[0c	[0f	[0a
=105	=105	=105	=105	=105
0FF]	0F]	0c]	0f]	0a]
*-	*-	*-	*-	*-
!!!CDT: 1525/^1526/-1594/2/2
!!!OCY: Italia
!!!AGN: Mass (Paraphrase)
!!!AST: renaissance, vocal
!!!ASW: Gregorian Mass
!!!PWK: Masses, Book Mantuan II
!!!RNB: Cadence finals: C
!!!YOR: Le Opere Complete, v. 19, p. 129
!!!YOO: Rome, Italy: Fratelli Scalera
!!!END: 1992//
!!!EED: John Miller
!!!YEC: Copyright 2000, John Miller
!!!YEN: United States of America
!!!YEM: Rights to all derivative electronic formats reserved.
!!!YEM: Refer to licensing agreement for further details.
!!!YEM: This file must be accompanied by the licensing agreement.
!!!YEM: A copy of the licensing agreement may be found at http://www.music-cog.ohio-state.edu/HumdrumDatabases/Palestrina/license.txt
!!!EMD: converted to Humdrum by Bret Aarden
